X: 121
T:Star of Logy Bay
M:3/4
R:waltz
L:1/8
Z:added by Alf warnock alf0@rogers.com - www.alfwarnock.info/alfs
K:C
ED \
| "C"C4 E2 | "Dm"D4 G2 | "G"B4 A2 | "G7"G4 DE | "F"F4 D2 | "C"C4 B,2 | C6 - |C4 G2 |
"C"c4 e2 | "G7"d2 B2 d2 | "F"c4 c2 | "G7"B4 AA | G4 D2 | E4 F2 | G6 - |G4 G2 |
"C"c4 e2 | "G"d2 B2 d2 | "F"c4 c2 | "G"B4 A2 | G4 D2 | E4 F2 | G6 |G4 ED |
"C"C4 E2 | "G"D4 G2 | B4 A2 | G4 DE | "F"F4 D2 | "C"C4 "G"B,2 | "C"C6 - |C6 |]

